X: 20535
T: John McFadden's Favourite
R: reel
M: 4/4
K: Gmajor
GBAG EGDB|GABD EA A2|DGGF G2 (3Bcd|gedB cBAB|
GBAG EGDB|GABD EA A2|DGGF G2 (3Bcd|gedc Bdef||
gBdg dgfg|ea a2 ea a2|gBdg bgag|(3efg dc Bdef|
gBdg dgfg|ea a2 ea a2|bg (3fga gedg|(3Bcd gd egdB||

